icons/hard-drive-fill.svg

<svg xmlns="http://www.w3.org/2000/svg" width="24" height="24" fill="none"><g clip-path="url(#a)"><g><path fill="#121212" d="M13.95 2H20C20.2652 2 20.5196 2.10536 20.7071 2.29289C20.8946 2.48043 21 2.73478 21 3V21C21 21.2652 20.8946 21.5196 20.7071 21.7071C20.5196 21.8946 20.2652 22 20 22H4C3.73478 22 3.48043 21.8946 3.29289 21.7071C3.10536 21.5196 3 21.2652 3 21V12.95C3.329 12.983 3.663 13 4 13C9.523 13 14 8.523 14 3C14 2.663 13.983 2.329 13.95 2ZM15 16V18H17V16H15ZM11.938 2C12.0906 3.21014 11.9645 4.43914 11.5692 5.59306C11.174 6.74697 10.5202 7.79524 9.65771 8.65771C8.79524 9.52018 7.74697 10.174 6.59306 10.5692C5.43914 10.9645 4.21014 11.0906 3 10.938V3C3 2.73478 3.10536 2.48043 3.29289 2.29289C3.48043 2.10536 3.73478 2 4 2H11.938Z"/></g></g><defs><clipPath id="a"><rect width="24" height="24" fill="white"/></clipPath></defs></svg>

<svg width="24" height="24" fill="none" xmlns="http://www.w3.org/2000/svg"><g clip-path="url(#a)"><path d="M13.95 2H20a1 1 0 0 1 1 1v18a1 1 0 0 1-1 1H4a1 1 0 0 1-1-1v-8.05c.329.033.663.05 1 .05 5.523 0 10-4.477 10-10 0-.337-.017-.671-.05-1ZM15 16v2h2v-2h-2ZM11.938 2A7.999 7.999 0 0 1 3 10.938V3a1 1 0 0 1 1-1h7.938Z" /></g><defs><clipPath id="a"><path fill="#fff" d="M0 0h24v24H0z"/></clipPath></defs></svg>
